X:1
T:Title
%%score { ( 1 3 ) | ( 2 4 ) }
L:1/8
M:6/8
K:Bb
V:1 treble nm="Grand Piano"
V:3 treble 
V:2 bass 
V:4 bass 
V:1
 z3 z2[Q:1/4=100] [DB] | [DB]2 [DB] [DB][FA][EG] | [DF]3 [B,D]2 D | E2 C G2 F | %4
 [DF]3 [B,D]2 [B,DF] | [B,EG]2 [B,EG] [B,GB][B,FA][B,EG] | D3- [DB]2 [Fd] | %7
 [Gc]2 [C=EG] [CFA][CFG][CFA] |[M:5/8] [B,DB]-[B,DB]- [B,DB]3 |[M:1/8] z | %10
[M:3/4] d-[Fd-] [Fd-][Fd] cB | c-[Gc-] [Gc] G3 | [=Ec]2 [Ec] [Ed]2 [Ec] | c4- cF | %14
 [DB]2 [DB][Fd] [Ec][DB] | f4 z2 | c>c cc dc |[M:5/8] [DB]-[DB]- [DB]3 |] %18
V:2
 z3 z2 [B,,F,] | [B,,F,]2 [B,,F,] [B,,F,][B,,B,][B,,B,] | [B,,B,]3 [B,,F,]2 [B,,F,B,] | %3
 [F,C]2 [F,A,] [F,CE]2 [F,B,D] | [B,,B,]3 [B,,F,]2 B,, | E,2 E, E,E,E, | z3 F,2 [B,,B,] | %7
 [E,G,]2 C, F,F,F, |[M:5/8] B,,-B,,- B,,3 |[M:1/8] F |[M:3/4] [B,,B,][D,B,] [F,B,]B, z2 | %11
 [E,G,][E,C] [E,C][E,CE] z2 | [C,G,]2 [C,G,] [C,G,]2 [C,B,] | [F,A,F]4- [F,A,F][F,A,] | %14
 [B,,B,]2 [B,,F,][B,,B,] [B,,B,][B,,B,] | [D,B,][D,B,] [F,B,] [B,F]2 [D,B,] | %16
 [F,A,F]>[F,A,F] [F,A,F][F,A,F] [F,B,F][F,A,E] |[M:5/8] [B,,B,]-[B,,B,]- [B,,B,]3 |] %18
V:3
 x6 | x6 | x6 | x6 | x6 | x6 | [B,F]3 z3 | x6 |[M:5/8] x5 |[M:1/8] x |[M:3/4] .F2 z2 z2 | %11
 .G2 z2 z2 | x6 | x6 | x6 | FF F d2 [FB] | x6 |[M:5/8] x5 |] %18
V:4
 x6 | x6 | x6 | x6 | x6 | x6 | B,,6 | x6 |[M:5/8] x5 |[M:1/8] x |[M:3/4] x6 | x6 | x6 | x6 | x6 | %15
 x6 | x6 |[M:5/8] x5 |] %18

